icons/svg/elevation-rise.svg

﻿<?xml version="1.0" encoding="utf-8"?>
<!DOCTYPE svg PUBLIC "-//W3C//DTD SVG 1.1//EN" "http://www.w3.org/Graphics/SVG/1.1/DTD/svg11.dtd">
<svg xmlns="http://www.w3.org/2000/svg" xmlns:xlink="http://www.w3.org/1999/xlink" version="1.1" baseProfile="full" width="24" height="24" viewBox="0 0 24.00 24.00" enable-background="new 0 0 24.00 24.00" xml:space="preserve">
	<path fill="#000000" fill-opacity="1" stroke-width="0.2" stroke-linejoin="round" d="M 3,21L 3,17.2915L 10.7775,12.8011L 14.5455,14.9765L 21,11.25L 21,21L 3,21 Z M 21,8.9406L 14.5454,12.6671L 10.7775,10.4917L 3,14.9821L 3,12.7915L 10.7775,8.30111L 14.5455,10.4765L 21,6.75L 21,8.9406 Z "/>
</svg>

<svg xmlns="http://www.w3.org/2000/svg" version="1.1" baseProfile="full" width="24" height="24" viewBox="0 0 24.00 24.00" xml:space="preserve"><path fill="#000" fill-opacity="1" stroke-width=".2" stroke-linejoin="round" d="M3 21v-3.71l7.777-4.49 3.77 2.176 6.453-3.726V21H3zM21 8.94l-6.455 3.727-3.768-2.175L3 14.982v-2.19l7.777-4.49 3.77 2.175 6.453-3.727v2.19z"/></svg>
